X:94
T:Hosanna, Loud Hosanna
%%stretchlast false
M:4/4
L:1/4
K:G clef=C1
"^v"[Dd] "^i"[Gg] "^vii"[Ff]/ "^vi"[Ee]/ "^v"[Dd] | "^I¹"[B,Gdg] "^vi"[EGB] "^ii7²"[EGAc]/ "^IV¹"[EGc]/ "^V"[DFAd] | "^I"[G,GBd] "^IV"[CGce]/ [CGcf]/ "^I¹"[B,Gdg] "^ii7¹"[CGea] | "^V"[DFda] "^I"[G,Gdb]3 | "^v"[Dd] "^i"[Gg] "^vii"[Ff]/ "^vi"[Ee]/ "^v"[Dd] | "^I¹"[B,Gdg] "^vi"[EGB] "^ii7²"[EGAc]/ "^IV¹"[EGc]/ "^V"[DFAd] | "^I"[G,GBd] "^IV"[CGce]/ [CGcf]/ "^vi"[EGBg]/ "^IV¹"[EGcg]/ "^i"[DAdg] | "^V"[DAdf] "^I"[G,Bdg]3 | [GBg]/ "^ii7³"[Gca]/ "^I"[Gdb] "^V¹"[FAda] "^I"[Gdb] | "^IV"[CGec'] "^V"[DFda] [Ddf]/ "^vi7³"[DEdg]/ "^V"[DFda] | "^I"[GBg]/ "^ii7³"[Gca]/ "^I"[Gdb] "^V¹"[FAda] "^I"[Gdb] | "^IV"[CGec'] "^V"[DFda]3 | "^v"[Dd] "^i"[Gg] "^vii"[Ff]/ "^vi"[Ee]/ "^v"[Dd] | "^I¹"[B,Gdg] "^vi"[EGB] "^ii7²"[EGAc]/ "^IV¹"[EGc]/ "^V"[DFAd] | "^I"[G,GBd] "^IV"[CGce]/ [CGcf]/ "^vi"[EGBg]/ "^IV¹"[EGcg]/ "^i"[DAdg] | "^V"[DAdf] "^I"[G,Bdg]3 |]
